icons/Business/bookmark-line.svg

<svg viewBox="0 0 24 24" xmlns="http://www.w3.org/2000/svg"><path d="M5 2H19C19.5523 2 20 2.44772 20 3V22.1433C20 22.4194 19.7761 22.6434 19.5 22.6434C19.4061 22.6434 19.314 22.6168 19.2344 22.5669L12 18.0313L4.76559 22.5669C4.53163 22.7136 4.22306 22.6429 4.07637 22.4089C4.02647 22.3293 4 22.2373 4 22.1433V3C4 2.44772 4.44772 2 5 2ZM18 4H6V19.4324L12 15.6707L18 19.4324V4Z"/></svg>

<svg xmlns="http://www.w3.org/2000/svg" viewBox="0 0 24 24">
    <g>
        <path fill="none" d="M0 0h24v24H0z"/>
        <path d="M5 2h14a1 1 0 0 1 1 1v19.143a.5.5 0 0 1-.766.424L12 18.03l-7.234 4.536A.5.5 0 0 1 4 22.143V3a1 1 0 0 1 1-1zm13 2H6v15.432l6-3.761 6 3.761V4z"/>
    </g>
</svg>
